brandFactory_export/3.Masa/Ruta recorrido_3Masa.svg

<?xml version="1.0" encoding="UTF-8"?>
<svg width="24px" height="24px" viewBox="0 0 24 24" version="1.1" xmlns="http://www.w3.org/2000/svg" xmlns:xlink="http://www.w3.org/1999/xlink">
    <title>3.Masa/Ruta recorrido_3Masa</title>
    <g id="Symbols" stroke="none" stroke-width="1" fill="none" fill-rule="evenodd">
        <g id="3.Masa/Ruta-recorrido_3Masa" fill="#5CB615" fill-rule="nonzero">
            <path d="M18.8,18.3428571 C19.1764706,18.4840336 19.3680672,18.907563 19.2268908,19.287395 C19.0890756,19.6537815 18.8672269,20.0033613 18.5714286,20.3260504 C18.4268908,20.4806723 18.2319328,20.5613445 18.0369748,20.5613445 C17.8588235,20.5613445 17.6806723,20.497479 17.5394958,20.3630252 C17.2436975,20.087395 17.2268908,19.6268908 17.502521,19.3277311 C17.6705882,19.1462185 17.7915966,18.9579832 17.8621849,18.7697479 C18,18.3932773 18.4201681,18.2016807 18.8,18.3428571 L18.8,18.3428571 Z M16.1512605,20.2487395 C16.5142857,20.0705882 16.9512605,20.2252101 17.1294118,20.5882353 C17.3042017,20.9512605 17.1529412,21.3915966 16.789916,21.5697479 C16.4941176,21.7142857 16.1781513,21.8487395 15.8487395,21.9697479 C15.7647059,22 15.6806723,22.0168067 15.5932773,22.0168067 C15.297479,22.0168067 15.0184874,21.8352941 14.907563,21.5394958 C14.7663866,21.1630252 14.9579832,20.7394958 15.3344538,20.594958 C15.6235294,20.487395 15.8957983,20.3731092 16.1512605,20.2487395 Z M14.4403361,16.3764706 C14.0638655,16.2285714 13.8789916,15.8016807 14.0268908,15.4252101 C14.1747899,15.0487395 14.6016807,14.8638655 14.9747899,15.0117647 C15.2605042,15.1260504 15.5563025,15.2302521 15.8521008,15.3378151 C16.2319328,15.4756303 16.4268908,15.8957983 16.2890756,16.2756303 C16.1815126,16.5747899 15.902521,16.7596639 15.6033613,16.7596639 C15.5193277,16.7596639 15.4352941,16.7462185 15.3546218,16.7159664 C15.0487395,16.6084034 14.7428571,16.4941176 14.4403361,16.3764706 L14.4403361,16.3764706 Z M15.1731092,11.5932773 C14.8672269,11.5932773 14.5848739,11.4016807 14.4806723,11.092437 C14.3529412,10.7092437 14.5579832,10.292437 14.9411765,10.1647059 C15.2638655,10.0571429 15.589916,9.95966387 15.902521,9.8789916 C16.2957983,9.77815126 16.692437,10.0067227 16.7966387,10.4 C16.9008403,10.7932773 16.6689076,11.1932773 16.2789916,11.297479 C15.9966387,11.3714286 15.7008403,11.4588235 15.4084034,11.5596639 C15.3277311,11.5831933 15.2504202,11.5932773 15.1731092,11.5932773 L15.1731092,11.5932773 Z M12.7226891,13.0184874 C12.5546218,13.0184874 12.389916,12.9613445 12.2521008,12.8470588 C11.9428571,12.5882353 11.902521,12.1243697 12.1613445,11.8151261 C12.3865546,11.5428571 12.6823529,11.287395 13.0420168,11.0521008 C13.3781513,10.8336134 13.8319328,10.9243697 14.0537815,11.2605042 C14.2756303,11.6 14.1815126,12.0537815 13.8453782,12.2756303 C13.6067227,12.4336134 13.4151261,12.594958 13.2806723,12.7563025 C13.1361345,12.9277311 12.9310924,13.0184874 12.7226891,13.0184874 Z M13.0319328,15.5294118 C12.8672269,15.5294118 12.702521,15.4756303 12.5680672,15.3613445 C12.2084034,15.0655462 11.9428571,14.7294118 11.7781513,14.3630252 C11.610084,13.9932773 11.7747899,13.5596639 12.1411765,13.3915966 C12.5109244,13.2268908 12.9411765,13.3882353 13.1092437,13.7579832 C13.1831933,13.9226891 13.3109244,14.0773109 13.4957983,14.2319328 C13.8084034,14.4907563 13.8521008,14.9512605 13.5966387,15.2638655 C13.4521008,15.4386555 13.2403361,15.5294118 13.0319328,15.5294118 Z M17.0352941,17.405042 C16.6756303,17.2201681 16.5378151,16.7764706 16.7260504,16.4168067 C16.9109244,16.0605042 17.3512605,15.9159664 17.7109244,16.1042017 C18.1042017,16.3092437 18.4134454,16.5210084 18.6621849,16.7563025 C18.9546218,17.0352941 18.9680672,17.4991597 18.692437,17.7915966 C18.5478992,17.9462185 18.3563025,18.0235294 18.1613445,18.0235294 C17.9831933,18.0235294 17.8016807,17.9563025 17.6605042,17.8252101 C17.512605,17.6840336 17.3008403,17.5428571 17.0352941,17.405042 Z M10.8436975,21.6638655 C11.2638655,21.6168067 11.6168067,21.8823529 11.6739496,22.2823529 C11.7310924,22.6823529 11.4554622,23.0554622 11.0588235,23.1159664 C10.7260504,23.1663866 10.4,23.210084 10.0907563,23.2470588 C10.0605042,23.2504202 10.0302521,23.2537815 10,23.2537815 C9.63697479,23.2537815 9.3210084,22.9815126 9.27731092,22.6084034 C9.22689076,22.2084034 9.51260504,21.8420168 9.91260504,21.7915966 C10.2117647,21.7546218 10.5243697,21.7142857 10.8436975,21.6638655 L10.8436975,21.6638655 Z M13.589916,21.1327731 C13.9764706,21.0319328 14.3798319,21.2739496 14.4773109,21.6672269 C14.5747899,22.0605042 14.3394958,22.4571429 13.9462185,22.5546218 C13.6268908,22.6352941 13.307563,22.7092437 12.9848739,22.7764706 C12.9344538,22.7865546 12.8840336,22.789916 12.8369748,22.789916 C12.497479,22.789916 12.1915966,22.5512605 12.1210084,22.205042 C12.0403361,21.8084034 12.292437,21.4218487 12.6890756,21.3378151 C12.9882353,21.2739496 13.2907563,21.2067227 13.589916,21.1327731 L13.589916,21.1327731 Z M5.5697479,14.5613445 C6.46386555,14.5613445 6.82689076,14.1983193 6.82689076,13.3008403 C6.82689076,12.4033613 6.46386555,12.0403361 5.5697479,12.0403361 C4.6789916,12.0403361 4.31594348,12.4067227 4.31594348,13.3008403 C4.31260504,14.1983193 4.6789916,14.5613445 5.5697479,14.5613445 Z M8.04369748,21.9798319 C8.43697479,21.9596639 8.79663866,22.2521008 8.8302521,22.6554622 C8.8605042,23.0588235 8.55798319,23.4117647 8.15798319,23.4420168 C7.7210084,23.4756303 7.40504202,23.492437 7.26386555,23.502521 L7.22016807,23.502521 C6.87731092,23.502521 6.56470588,23.2605042 6.48403361,22.9310924 C6.28907563,23.1596639 6.13781513,23.3277311 6.05714286,23.4117647 C5.91596639,23.5529412 5.72773109,23.6268908 5.5394958,23.6268908 C5.3512605,23.6268908 5.16638655,23.5563025 5.02184874,23.4117647 C4.39327731,22.7831933 -0.0100840336,17.4789916 -1.72925599e-05,13.902521 C0.0100840336,10.4235294 2.08403361,8.34957983 5.54621849,8.34957983 L5.57310924,8.34957983 C7.27731092,8.35294118 8.68571429,8.87058824 9.65042017,9.84201681 C10.6151261,10.8134454 11.1193277,12.2285714 11.1126714,13.9361345 C11.1058824,16.5411765 8.71932773,20.087395 7.20672269,22.0369748 C7.34789916,22.0268908 7.64033613,22.010084 8.04369748,21.9798319 Z M19.7512605,4.54789916 C20.3630252,4.54789916 20.6117647,4.29579832 20.6117647,3.68067227 C20.6117647,3.06554622 20.3596639,2.81680672 19.7512605,2.81680672 C19.1394958,2.81680672 18.8907563,3.06554622 18.8907563,3.68067227 C18.8907563,4.29579832 19.1394958,4.54789916 19.7512605,4.54789916 Z M19.7008403,0 C22.1277311,0.00672268908 23.6302521,1.52268908 23.6235519,3.95630252 C23.6168067,6.42352941 20.6420168,9.9697479 20.1915966,10.4201681 C20.0504202,10.5613445 19.8621849,10.6352941 19.6739496,10.6352941 C19.4857143,10.6352941 19.3008403,10.5647059 19.1563025,10.4201681 C19.1193277,10.3831933 19.0621849,10.3193277 18.9915966,10.2420168 C18.9546218,10.5915966 18.6823529,10.8773109 18.3193277,10.897479 C18.2890756,10.9008403 18.194958,10.9109244 18.0605042,10.9310924 C18.0268908,10.9378151 17.989916,10.9378151 17.9563025,10.9378151 C17.6,10.9378151 17.287395,10.6756303 17.2336134,10.3092437 C17.1764706,9.9092437 17.4521008,9.53613445 17.8521008,9.48235294 C18.0571429,9.45210084 18.1915966,9.43865546 18.2319328,9.43529412 C18.2722689,9.43193277 18.3058824,9.4487395 18.3428571,9.4487395 C17.3176471,8.11092437 15.7411765,5.7210084 15.7445324,3.93277311 C15.7478992,2.73277311 16.1142857,1.73445378 16.8067227,1.04537815 C17.492437,0.359663866 18.487395,0 19.6773109,0 L19.7008403,0 Z" id="Ruta-recorrido_3Masa"></path>
        </g>
    </g>
</svg>

<svg width="24" height="24" viewBox="0 0 24 24" xmlns="http://www.w3.org/2000/svg"><path d="M18.8 18.343a.735.735 0 01.427.944c-.138.367-.36.716-.656 1.04a.732.732 0 01-.534.234.733.733 0 01-.534-1.234c.168-.18.289-.369.36-.557a.727.727 0 01.937-.427zm-2.649 1.906a.732.732 0 01.978.34.739.739 0 01-.34.98 10.02 10.02 0 01-.94.4.733.733 0 01-.941-.43.738.738 0 01.426-.944c.29-.108.562-.222.817-.346zm-1.71-3.873a.732.732 0 11.534-1.365c.286.115.581.22.877.327.38.138.575.558.437.938a.728.728 0 01-.934.44 29.847 29.847 0 01-.915-.34zm.732-4.783a.733.733 0 01-.232-1.429c.323-.107.649-.204.962-.285a.73.73 0 01.894.521.732.732 0 01-.518.897c-.282.074-.578.162-.87.263a.83.83 0 01-.236.033zm-2.45 1.425a.732.732 0 01-.562-1.203c.226-.272.521-.528.881-.763a.734.734 0 011.012.209.735.735 0 01-.209 1.015c-.238.158-.43.319-.564.48a.729.729 0 01-.558.262zm.309 2.511a.711.711 0 01-.464-.168 2.78 2.78 0 01-.79-.998.735.735 0 01.363-.971c.37-.165.8-.004.968.366.074.165.202.32.387.474.312.259.356.72.1 1.032a.735.735 0 01-.564.265zm4.003 1.876a.73.73 0 01-.309-.988.73.73 0 01.985-.313c.393.205.702.417.951.652a.736.736 0 01-.5 1.268.739.739 0 01-.501-.199 2.753 2.753 0 00-.626-.42zm-6.191 4.259c.42-.047.773.218.83.618a.738.738 0 01-.615.834c-.333.05-.659.094-.968.131a.73.73 0 01-.813-.639.733.733 0 01.635-.816c.299-.037.611-.078.93-.128zm2.746-.531c.386-.101.79.14.887.534a.73.73 0 01-.53.888c-.32.08-.64.154-.962.221a.732.732 0 01-.864-.571.735.735 0 01.568-.867c.3-.064.602-.131.9-.205zM5.57 14.56c.894 0 1.257-.363 1.257-1.26 0-.898-.363-1.26-1.257-1.26-.891 0-1.254.366-1.254 1.26-.003.897.363 1.26 1.254 1.26zm2.474 7.419a.75.75 0 01.786.675.733.733 0 01-.672.787c-.437.034-.753.05-.894.06H7.22a.767.767 0 01-.736-.57c-.195.228-.346.396-.427.48a.733.733 0 01-1.035 0C4.393 22.783-.01 17.479 0 13.902.01 10.425 2.084 8.35 5.546 8.35h.027c1.704.003 3.113.52 4.077 1.492.965.971 1.47 2.387 1.463 4.094-.007 2.605-2.394 6.151-3.906 8.101.14-.01.433-.027.837-.057zM19.75 4.548c.612 0 .86-.252.86-.867s-.251-.864-.86-.864c-.612 0-.86.249-.86.864s.248.867.86.867zM19.701 0c2.427.007 3.93 1.523 3.923 3.956-.007 2.468-2.982 6.014-3.432 6.464a.733.733 0 01-1.036 0c-.037-.037-.094-.1-.164-.178a.72.72 0 01-.673.655c-.03.004-.124.014-.258.034-.034.007-.071.007-.105.007a.733.733 0 01-.104-1.456c.205-.03.34-.043.38-.047.04-.003.074.014.11.014-1.024-1.338-2.6-3.728-2.597-5.516.003-1.2.37-2.199 1.062-2.888C17.492.36 18.487 0 19.677 0h.024z" fill="#5CB615" fill-rule="nonzero"/></svg>
